!!!OTL: 695. Liebesklage.
!!!ARE: Europa, Mitteleuropa, Deutschland, Hessen, Eisenroth a.d. Lahn
!!!SCT: E0695
!!!TXL: @@DE
!!!YEM: Copyright 1995, estate of Helmut Schaffrath.
**kern	**text
*ICvox	*
*M3/4	*
*k[b-]	*
*F:	*
!LO:TX:a:t=Ziemlich langsam.	!
!LO:TX:a:t=Mündl. aus Eiſenroth a. d. Lahn. Becker, Rhein. Liederb. Nr. 71.	!
{8c	Dort
=1	=1
8f	un-
16aL	-ten
16gJ	.
4.f	geht
8a	mein
=2	=2
8g	Trau-
8dd	-ern
4.cc}	an,
{8b-	die
=3	=3
8a	Schei-
8cc	-de-
8ccq	.
4.b-	-ſtund
8a	iſt
=4	=4
4g	kom-
4f	-men.
8r}	.
{8cc	Ach,
=5	=5
8a	wie
8cc	thut
4.dd	mir
8cc	mein
=6	=6
8b-	Herʒ
8dd	ſo
4.cc}	weh,
{8b-	mein
=7	=7
8a	Schatʒ
8cc	iſt
8ccq	.
4.b-	mir
8a	ge-
=8	=8
4g	-nom-
4f	-men.
8r}	.
{8cc	Ach,
=9	=9
8a	wie
8cc	thut
4.dd	mir
8cc	mein
=10	=10
8b-	Herʒ
8dd	ſo
4.cc}	weh,
{8b-	mein
=11	=11
8a	Schatʒ
8cc	iſt
8ccq	.
4.b-	mir
8a	ge-
=12	=12
4g	-nom-
4f	-men.
8r}	.
==	==
!!!AGN: Liebes - Lied, Leid, Klage
!!!ONB: ESAC (Essen Associative Code) Database: ERK2
!!!AMT: simple triple
!!!AIN: vox
!!!EED: Helmut Schaffrath
!!!EEV: 1.0
!!!GTL: Liebeslieder [Neuere (aus dem 18. bis 19. Jahrh.) - Liebesleid] 678-740
!!!URL-scan: https://rosdok.uni-rostock.de/mcrviewer/recordIdentifier/rosdok_ppn745177662/iview2/phys_0498.iview2?x=193.8995864193107&y=227.1928654294461&scale=0.7029437510502773&rotation=0&layout=singlePageLayout
!!!ENC: Anna Maria Matuszewska
!!!EEV: 2024/12/16
*-	*-
